X: 14805
T: Ganley's
R: reel
M: 4/4
K: Gmajor
DGBG A2 (3Bcd|eaab gedB|G2GB ABGE|DEGA AFGE|
DGBG A2 (3Bcd|eaab gedB|G2 (3Bcd egdB|GABG A2 (3Bcd||
ea~a2 bg~g2|agab g2ag|edef ~g2ga|b2af gedg|
ea~a2 bg~g2|agab g2ag|edef ~g2ge|dBGB A2AG||

